client/public/img/game/shared/weapons/blr.svg

<?xml version="1.0" encoding="UTF-8" standalone="no"?>
<svg
   width="108.38654"
   height="82.126266"
   viewBox="0 0 108.38654 82.126266"
   fill="none"
   version="1.1"
   id="svg32"
   sodipodi:docname="blr.svg"
   xmlns:inkscape="http://www.inkscape.org/namespaces/inkscape"
   xmlns:sodipodi="http://sodipodi.sourceforge.net/DTD/sodipodi-0.dtd"
   xmlns="http://www.w3.org/2000/svg"
   xmlns:svg="http://www.w3.org/2000/svg">
  <sodipodi:namedview
     id="namedview32"
     pagecolor="#505050"
     bordercolor="#ffffff"
     borderopacity="1"
     inkscape:showpageshadow="0"
     inkscape:pageopacity="0"
     inkscape:pagecheckerboard="1"
     inkscape:deskcolor="#505050" />
  <g
     clip-path="url(#clip0_2940_3886)"
     id="g32"
     transform="translate(-1.0778419,-14.235466)">
    <path
       d="m 55.3722,43.9309 1.1861,-0.6394 c 1.6974,-0.2498 5.4976,-2.1158 7.6623,-3.1998 l 3.8284,-2.0072 -0.1622,0.0938 c -5.1267,3.0455 -7.9572,4.4769 -12.0449,6.544 -0.1116,0.0564 -0.2241,0.1133 -0.3376,0.1707 z"
       fill="#43403d"
       stroke="#363330"
       stroke-width="0.507958"
       stroke-miterlimit="3.99393"
       id="path1" />
    <path
       d="m 41.0064,62.9655 c 0.187,-0.204 0.3738,-0.4079 0.5605,-0.6118 l 1.3019,-0.892 -0.0679,0.4202 c -0.4392,0.6366 -0.8294,1.7729 -0.6213,2.9341 0.1297,0.7235 0.6936,0.83 1.2385,0.8157 0.0149,-3e-4 0.0179,0.0189 0.0035,0.0223 -0.4232,0.0999 -0.8494,-0.0261 -1.0766,-0.2023 -0.0282,-0.0218 -0.0578,-0.0445 -0.0886,-0.068 -0.3718,-0.2843 -0.9061,-0.6928 -1.1263,-1.3986 -0.0888,-0.314 -0.1237,-1.0196 -0.1237,-1.0196 z"
       fill="#43403d"
       stroke="#363330"
       stroke-width="0.507959"
       stroke-miterlimit="3.99393"
       id="path2" />
    <path
       fill-rule="evenodd"
       clip-rule="evenodd"
       d="m 40.897,63.0855 c 0.2234,-0.2436 0.4465,-0.4871 0.6695,-0.7305 l 2.9828,-2.0439 c 0.1795,-0.1234 0.3368,-0.2668 0.4722,-0.4151 -0.0073,0.0786 -0.0154,0.1595 -0.0238,0.242 -0.0723,0.718 -0.1573,1.5616 0.2009,2.122 0.3407,0.5552 0.9846,1.6272 0.3403,2.4792 l -1.0356,1.3157 c -0.3293,0.4254 -0.8126,0.6653 -1.0946,0.7243 -0.5427,0.1137 -0.9283,0.4253 -1.063,0.7098 -0.0702,0.1482 -0.1315,0.3024 -0.192,0.4549 -0.1338,0.337 -0.2641,0.6652 -0.4798,0.8995 l -5.1314,5.8754 c -0.8132,0.8983 -1.7376,0.8949 -2.4933,0.3373 -0.4723,-0.3485 -0.7746,-1.1212 -0.8833,-1.7066 l 7.2567,-8.2356 c 0.5971,-0.6183 0.7975,-1.2238 0.4744,-2.0284 z m 0.8328,4.5446 c 0.4308,-1.0415 -1.1495,-2.0596 -1.8939,-1.0767 l -5.4093,6.1373 c -0.2933,0.3328 -0.4634,0.7246 -0.4709,1.0837 -0.0078,0.371 0.156,0.7066 0.4051,0.8735 0.6641,0.4448 1.1717,0.4183 1.9134,-0.3938 l 4.9705,-5.6923 c 0.2065,-0.2368 0.3137,-0.5048 0.4237,-0.7798 0.0202,-0.0504 0.0404,-0.1011 0.0614,-0.1519 z M 41.2931,64.8 c -0.4007,1.322 1.4258,1.6455 1.9804,1.4795 0.1646,-0.0493 0.5064,-0.1644 0.7384,-0.4263 l 1.1428,-1.4553 c 0.2656,-0.4228 0.1844,-0.8849 -0.2304,-1.6035 -0.1381,-0.2392 -0.2177,-0.3875 -0.3163,-0.5713 -0.0194,-0.0362 -0.0396,-0.0738 -0.061,-0.1137 -0.7109,0.0173 -1.9666,0.1816 -2.8238,1.7359 -0.0847,0.1536 -0.3234,0.6676 -0.4301,0.9547 z"
       fill="#868079"
       stroke="#363330"
       stroke-width="0.507959"
       stroke-miterlimit="3.99393"
       id="path3" />
    <path
       d="m 35.4288,60.9398 c 0.3973,-0.3845 1.1394,-0.2972 1.2228,0.0323 l 0.1749,0.303 0.71,-0.7922 c -0.7495,-0.0278 -1.124,-0.5031 -1.0674,-0.7726 0,0 -0.0214,-0.024 -0.073,-0.087 -0.3772,0.1482 -0.87,0.5646 -0.9905,0.9836 -0.1121,0.3986 -0.318,0.6015 -0.5757,0.769 -0.1601,0.1106 -0.3262,0.2561 -0.3909,0.6636 -0.0041,0.0245 0.0078,0.0258 0.0169,0.0135 z"
       fill="#43403d"
       stroke="#363330"
       stroke-width="0.507958"
       stroke-miterlimit="3.99393"
       id="path4" />
    <path
       d="m 105.06,15.7357 -0.712,1.1224 0.108,0.1869 3.116,-1.7992 -0.108,-0.187 -0.846,-0.2389 c -0.502,-0.051 -0.805,-0.1594 -1.052,-0.2934 l -0.593,0.3423 0.107,0.1852 c -0.118,0.251 -0.269,0.2381 -0.02,0.6817 z"
       fill="#514d49"
       id="path5" />
    <path
       d="m 57.5912,50.7508 21.7569,-13.5696 0.3399,-0.5898 2.031,-1.3473 c 0.3292,-0.2228 0.2721,-0.3885 -0.1112,-1.067 L 80.6189,32.4729 55.4336,47.0138"
       fill="#6B6661"
       id="path6"
       style="fill:#756657;fill-opacity:1" />
    <path
       d="m 78.0779,33.9384 -21.8435,12.6115 4.8947,-1.2203 -2.3161,2.5286 2.9517,-0.8243 -1.1242,1.8134 15.7187,-9.8036 -2.2513,0.4789 2.5069,-2.5471 -2.1676,0.4999 z"
       fill="#504D49"
       id="path7"
       style="fill:#584f41;fill-opacity:1" />
    <path
       d="m 47.5857,57.0733 8.0601,-5.095 0.2802,0.661 c 0.1284,0.3001 -0.0252,0.4697 -0.2917,0.7639 -0.0277,0.0306 -0.0567,0.0625 -0.0866,0.0961 -1.6393,1.6098 -3.6783,3.2023 -5.9006,4.787 -0.4663,0.313 -0.5551,0.3186 -0.8252,0.0746 z"
       fill="#514d49"
       id="path8" />
    <path
       d="m 52.5358,54.9509 -3.3757,2.6311 c -0.1391,0.1084 -0.164,0.3091 -0.0556,0.4482 l 0.1294,0.166 c 0.1084,0.1391 0.3091,0.164 0.4482,0.0555 l 3.3757,-2.6311 c 0.1391,-0.1084 0.164,-0.3091 0.0556,-0.4482 l -0.1294,-0.166 c -0.1084,-0.1391 -0.3091,-0.164 -0.4482,-0.0555 z"
       fill="#43403d"
       id="path9" />
    <path
       d="m 53.1825,54.4921 c 0.1429,-0.0825 0.1919,-0.2652 0.1094,-0.4081 -0.0825,-0.1429 -0.2653,-0.1919 -0.4082,-0.1094 -0.1429,0.0825 -0.1918,0.2653 -0.1093,0.4082 0.0825,0.1429 0.2652,0.1918 0.4081,0.1093 z"
       fill="#3b3835"
       id="path10" />
    <path
       d="m 38.1545,59.7961 3.4129,2.5578 2.9829,-2.0437 c 0.5951,-0.4088 0.9449,-1.0376 1.0676,-1.3386 0.2204,-0.4935 0.5425,-1.0005 1.4181,-1.5497 l 10.5539,-6.6713 -3.0751,-5.3262 -14.6374,8.5463 c -1.1934,0.7291 -1.2567,1.8353 -1.0168,3.0178 0.2541,1.1742 -0.183,2.0733 -0.7061,2.8076 z"
       fill="#b6b2ae"
       id="path11" />
    <path
       d="m 47.5857,57.0733 8.0601,-5.095 0.2802,0.661 c 0.1284,0.3001 -0.0252,0.4697 -0.2917,0.7639 -0.0277,0.0306 -0.0567,0.0625 -0.0866,0.0961 -1.6393,1.6098 -3.6783,3.2023 -5.9006,4.787 -0.4663,0.313 -0.5551,0.3186 -0.8252,0.0746 z"
       stroke="#363330"
       stroke-width="1.01592"
       stroke-miterlimit="3.99393"
       id="path12" />
    <path
       d="m 38.1537,59.7964 -7.3049,8.1509 c -0.9279,1.0772 -2.1273,1.6266 -3.4911,1.4139 l -2.5466,-0.603 C 23.772,68.5339 23.6016,68.6017 22.7632,69.1839 L 2.08241,83.1019 C 1.32063,83.6378 1.58843,83.9242 1.87878,84.3693 L 9.706,95.8111 c 0.04601,0.0816 0.21077,0.048 0.4123,-0.1684 C 20.8524,84.7875 31.4248,73.4255 41.5665,62.3542"
       fill="#6B6661"
       id="path13"
       style="fill:#756657;fill-opacity:1" />
    <path
       d="m 11.7196,94.02 0.1162,-0.143 C 8.57462,90.6096 5.62,86.5774 3.16668,82.3736 L 2.08281,83.103 c -0.71234,0.5011 -0.5244,0.784 -0.25959,1.1827 0.01838,0.0276 0.03712,0.0559 0.05596,0.0847 L 9.7064,95.8122 c 0.04601,0.0816 0.21077,0.048 0.4123,-0.1684 0.5341,-0.54 1.0677,-1.0814 1.6009,-1.6238 z"
       fill="#43403d"
       id="path14" />
    <path
       d="M 10.8386,94.436 C 7.8285,91.4868 5.36785,88.2145 2.50251,83.2583 L 2.32029,82.9426 3.16819,82.372 c 2.45332,4.2038 5.40794,8.236 8.66911,11.5034 l -0.1161,0.143 c -0.2136,0.2172 -0.4272,0.4343 -0.6409,0.6512 z"
       fill="#3b3835"
       id="path15" />
    <path
       d="m 42.381,58.6131 c 0.2073,-0.1197 0.2783,-0.3848 0.1586,-0.5921 -0.1196,-0.2073 -0.3847,-0.2783 -0.592,-0.1586 -0.2073,0.1197 -0.2783,0.3847 -0.1586,0.592 0.1196,0.2073 0.3847,0.2784 0.592,0.1587 z"
       fill="#6b6661"
       id="path16" />
    <path
       d="m 41.2326,61.3758 c 0.2073,-0.1197 0.2783,-0.3848 0.1586,-0.5921 -0.1197,-0.2073 -0.3847,-0.2783 -0.592,-0.1586 -0.2073,0.1197 -0.2784,0.3847 -0.1587,0.592 0.1197,0.2073 0.3848,0.2783 0.5921,0.1587 z"
       fill="#6b6661"
       id="path17" />
    <path
       d="m 45.0451,59.6014 c 0.2073,-0.1197 0.2783,-0.3848 0.1586,-0.5921 -0.1197,-0.2073 -0.3847,-0.2783 -0.592,-0.1586 -0.2073,0.1197 -0.2784,0.3847 -0.1587,0.592 0.1197,0.2073 0.3848,0.2783 0.5921,0.1587 z"
       fill="#6b6661"
       id="path18" />
    <path
       d="m 55.6259,51.1728 c 0.1429,-0.0825 0.1918,-0.2652 0.1093,-0.4081 -0.0825,-0.1429 -0.2652,-0.1919 -0.4081,-0.1094 -0.1429,0.0825 -0.1919,0.2652 -0.1094,0.4081 0.0825,0.1429 0.2653,0.1919 0.4082,0.1094 z"
       fill="#6b6661"
       id="path19" />
    <path
       d="m 57.5912,50.7508 21.7569,-13.5696 0.3399,-0.5898 2.031,-1.3473 c 0.3292,-0.2228 0.2721,-0.3885 -0.1112,-1.067 L 80.6189,32.4729 55.4336,47.0138"
       stroke="#363330"
       stroke-width="1.01592"
       stroke-miterlimit="3.99393"
       id="path20"
       style="stroke:#3b332b;stroke-opacity:1" />
    <path
       d="m 106.836,14.8813 -1.943,1.1221 -0.543,0.8551 0.108,0.187 3.116,-1.7992 -0.108,-0.187 z"
       fill="#43403d"
       id="path21" />
    <path
       d="m 105.06,15.7357 -0.712,1.1224 0.108,0.1869 3.116,-1.7992 -0.108,-0.187 -0.846,-0.2389 c -0.502,-0.051 -0.805,-0.1594 -1.052,-0.2934 l -0.593,0.3423 0.107,0.1852 c -0.118,0.251 -0.269,0.2381 -0.02,0.6817 z"
       stroke="#363330"
       stroke-width="0.507958"
       stroke-miterlimit="3.99393"
       id="path22" />
    <path
       d="m 67.8849,38.1786 9.1966,-5.3141 30.9655,-17.8926 0.722,1.2405 -28.2703,16.3281 -25.0678,14.4729 -0.9172,-1.5886 0.4366,-0.2521 c 4.5877,-2.3224 7.4444,-3.7326 12.9346,-6.9941 z"
       fill="#9e9994"
       stroke="#363330"
       stroke-width="1.01592"
       stroke-miterlimit="3.99393"
       id="path23" />
    <path
       d="m 76.8994,32.5601 2.7552,4.7721 c 0.3265,-0.1013 0.8243,-0.3108 0.7266,-1.006 L 77.88,31.994 c -0.4897,0.0443 -0.7728,0.2718 -0.9806,0.5661 z"
       fill="#43403d"
       stroke="#363330"
       stroke-width="0.507958"
       stroke-miterlimit="3.99393"
       id="path24" />
    <path
       d="m 41.5634,62.3597 -4.3827,2.4558 1.3604,-3.0434 -2.7926,1.7302 1.0959,-2.2429 -5.994,6.6883 c -0.4571,0.5306 -0.98,0.9331 -1.556,1.1796 -1.3212,0.5305 -2.8312,4.4872 -4.3166,8.1761 -0.7426,1.8444 -1.4853,3.6889 -2.1633,5.1251 L 22.748,82.5911 C 29.1376,75.8587 35.4293,69.056 41.5634,62.3597 Z"
       fill="#504D49"
       id="path26"
       style="fill:#584f41;fill-opacity:1" />
    <path
       d="m 38.1537,59.7964 -7.3049,8.1509 c -0.9279,1.0772 -2.1273,1.6266 -3.4911,1.4139 l -2.5466,-0.603 C 23.772,68.5339 23.6016,68.6017 22.7632,69.1839 L 2.08241,83.1019 C 1.32063,83.6378 1.58843,83.9242 1.87878,84.3693 L 9.706,95.8111 c 0.04601,0.0816 0.21077,0.048 0.4123,-0.1684 C 20.8524,84.7875 31.4248,73.4255 41.5665,62.3542"
       stroke="#363330"
       stroke-width="1.01592"
       stroke-miterlimit="3.99393"
       id="path27"
       style="stroke:#3b332b;stroke-opacity:1" />
    <path
       d="m 54.5115,45.4263 -14.6341,8.5444 c -1.1934,0.7291 -1.2567,1.8353 -1.0168,3.0178 0.2541,1.1742 -0.183,2.0733 -0.7061,2.8076 l 0.7462,0.5592 c 1.0404,-1.2189 1.012,-2.5498 0.848,-3.6106 -0.0068,-0.0396 -0.0147,-0.0815 -0.023,-0.1253 -0.0965,-0.5119 -0.2428,-1.2877 0.7269,-1.8882 l 14.5733,-8.4139 z"
       fill="#928c86"
       id="path28" />
    <path
       d="m 45.3496,50.7742 c -1.738,1.0211 -0.3906,3.266 1.2017,2.3845 l 4.2976,-2.4813 c 0.3169,-0.193 0.629,-0.6055 1.001,-0.8552 L 52.323,49.549 c 1.0026,-0.5533 -0.0611,-2.4725 -0.9935,-1.9268 -0.3827,0.2024 -0.182,0.0969 -0.4638,0.2425 -0.6546,0.3626 -1.008,0.2657 -1.3882,0.502"
       fill="#6b6661"
       id="path30" />
    <path
       d="m 38.1545,59.7961 3.4129,2.5578 2.9829,-2.0437 c 0.5951,-0.4088 0.9449,-1.0376 1.0676,-1.3386 0.2204,-0.4935 0.5425,-1.0005 1.4181,-1.5497 l 10.5539,-6.6713 -3.0751,-5.3262 -14.6374,8.5463 c -1.1934,0.7291 -1.2567,1.8353 -1.0168,3.0178 0.2541,1.1742 -0.183,2.0733 -0.7061,2.8076 z"
       stroke="#363330"
       stroke-width="1.01592"
       stroke-miterlimit="3.99393"
       stroke-linecap="round"
       id="path29" />
    <path
       d="m 52.1728,47.9301 -7.194,4.1535 c -0.19,0.1097 -0.2551,0.3527 -0.1454,0.5427 0.1097,0.19 0.3527,0.2551 0.5427,0.1454 l 7.194,-4.1534 c 0.19,-0.1097 0.2551,-0.3527 0.1454,-0.5427 -0.1097,-0.1901 -0.3527,-0.2552 -0.5427,-0.1455 z"
       fill="#514d49"
       id="path31" />
    <path
       d="m 45.3496,50.7742 c -1.738,1.0211 -0.3906,3.266 1.2017,2.3845 l 4.2976,-2.4813 c 0.3169,-0.193 0.629,-0.6055 1.001,-0.8552 L 52.323,49.549 c 1.0026,-0.5533 -0.0611,-2.4725 -0.9935,-1.9268 -0.3827,0.2024 -0.182,0.0969 -0.4638,0.2425 -0.6546,0.3626 -1.008,0.2657 -1.3882,0.502"
       stroke="#363330"
       stroke-width="1.01592"
       stroke-miterlimit="3.99393"
       id="path32" />
    <path
       d="m 11.7196,94.02 0.1162,-0.143 C 8.57462,90.6096 5.62,86.5774 3.16668,82.3736 L 2.08281,83.103 c -0.71234,0.5011 -0.5244,0.784 -0.25959,1.1827 0.01838,0.0276 0.03712,0.0559 0.05596,0.0847 L 9.7064,95.8122 c 0.04601,0.0816 0.21077,0.048 0.4123,-0.1684 0.5341,-0.54 1.0677,-1.0814 1.6009,-1.6238 z"
       stroke="#363330"
       stroke-width="0.507959"
       stroke-miterlimit="3.99393"
       id="path25"
       style="stroke-width:1.016;stroke-dasharray:none" />
  </g>
  <defs
     id="defs32">
    <clipPath
       id="clip0_2940_3886">
      <rect
         width="110"
         height="110"
         fill="#ffffff"
         id="rect32"
         x="0"
         y="0" />
    </clipPath>
  </defs>
</svg>

<svg width="110" height="110" viewBox="0 0 110 110" fill="none" xmlns="http://www.w3.org/2000/svg">
<g clip-path="url(#clip0_2940_3886)">
<path d="M55.3722 43.9309L56.5583 43.2915C58.2557 43.0417 62.0559 41.1757 64.2206 40.0917L68.049 38.0845L67.8868 38.1783C62.7601 41.2238 59.9296 42.6552 55.8419 44.7223C55.7303 44.7787 55.6178 44.8356 55.5043 44.893L55.3722 43.9309Z" fill="#43403D" stroke="#363330" stroke-width="0.507958" stroke-miterlimit="3.99393"/>
<path d="M41.0064 62.9655C41.1934 62.7615 41.3802 62.5576 41.5669 62.3537L42.8688 61.4617L42.8009 61.8819C42.3617 62.5185 41.9715 63.6548 42.1796 64.816C42.3093 65.5395 42.8732 65.646 43.4181 65.6317C43.433 65.6314 43.436 65.6506 43.4216 65.654C42.9984 65.7539 42.5722 65.6279 42.345 65.4517C42.3168 65.4299 42.2872 65.4072 42.2564 65.3837C41.8846 65.0994 41.3503 64.6909 41.1301 63.9851C41.0413 63.6711 41.0064 62.9655 41.0064 62.9655Z" fill="#43403D" stroke="#363330" stroke-width="0.507959" stroke-miterlimit="3.99393"/>
<path fill-rule="evenodd" clip-rule="evenodd" d="M40.897 63.0855C41.1204 62.8419 41.3435 62.5984 41.5665 62.355L44.5493 60.3111C44.7288 60.1877 44.8861 60.0443 45.0215 59.896C45.0142 59.9746 45.0061 60.0555 44.9977 60.138C44.9254 60.856 44.8404 61.6996 45.1986 62.26C45.5393 62.8152 46.1832 63.8872 45.5389 64.7392L44.5033 66.0549C44.174 66.4803 43.6907 66.7202 43.4087 66.7792C42.866 66.8929 42.4804 67.2045 42.3457 67.489C42.2755 67.6372 42.2142 67.7914 42.1537 67.9439C42.0199 68.2809 41.8896 68.6091 41.6739 68.8434L36.5425 74.7188C35.7293 75.6171 34.8049 75.6137 34.0492 75.0561C33.5769 74.7076 33.2746 73.9349 33.1659 73.3495L40.4226 65.1139C41.0197 64.4956 41.2201 63.8901 40.897 63.0855ZM41.7298 67.6301C42.1606 66.5886 40.5803 65.5705 39.8359 66.5534L34.4266 72.6907C34.1333 73.0235 33.9632 73.4153 33.9557 73.7744C33.9479 74.1454 34.1117 74.481 34.3608 74.6479C35.0249 75.0927 35.5325 75.0662 36.2742 74.2541L41.2447 68.5618C41.4512 68.325 41.5584 68.057 41.6684 67.782C41.6886 67.7316 41.7088 67.6809 41.7298 67.6301ZM41.2931 64.8C40.8924 66.122 42.7189 66.4455 43.2735 66.2795C43.4381 66.2302 43.7799 66.1151 44.0119 65.8532L45.1547 64.3979C45.4203 63.9751 45.3391 63.513 44.9243 62.7944C44.7862 62.5552 44.7066 62.4069 44.608 62.2231C44.5886 62.1869 44.5684 62.1493 44.547 62.1094C43.8361 62.1267 42.5804 62.291 41.7232 63.8453C41.6385 63.9989 41.3998 64.5129 41.2931 64.8Z" fill="#868079" stroke="#363330" stroke-width="0.507959" stroke-miterlimit="3.99393"/>
<path d="M35.4288 60.9398C35.8261 60.5553 36.5682 60.6426 36.6516 60.9721L36.8265 61.2751L37.5365 60.4829C36.787 60.4551 36.4125 59.9798 36.4691 59.7103C36.4691 59.7103 36.4477 59.6863 36.3961 59.6233C36.0189 59.7715 35.5261 60.1879 35.4056 60.6069C35.2935 61.0055 35.0876 61.2084 34.8299 61.3759C34.6698 61.4865 34.5037 61.632 34.439 62.0395C34.4349 62.064 34.4468 62.0653 34.4559 62.053L35.4288 60.9398Z" fill="#43403D" stroke="#363330" stroke-width="0.507958" stroke-miterlimit="3.99393"/>
<path d="M105.06 15.7357L104.348 16.8581L104.456 17.045L107.572 15.2458L107.464 15.0588L106.618 14.8199C106.116 14.7689 105.813 14.6605 105.566 14.5265L104.973 14.8688L105.08 15.054C104.962 15.305 104.811 15.2921 105.06 15.7357Z" fill="#514D49"/>
<path d="M57.5912 50.7508L79.3481 37.1812L79.688 36.5914L81.719 35.2441C82.0482 35.0213 81.9911 34.8556 81.6078 34.1771L80.6189 32.4729L55.4336 47.0138" fill="#6B6661"/>
<path d="M78.0779 33.9384L56.2344 46.5499L61.1291 45.3296L58.813 47.8582L61.7647 47.0339L60.6405 48.8473L76.3592 39.0437L74.1079 39.5226L76.6148 36.9755L74.4472 37.4754L78.0779 33.9384Z" fill="#504D49"/>
<path d="M47.5857 57.0733L55.6458 51.9783L55.926 52.6393C56.0544 52.9394 55.9008 53.109 55.6343 53.4032C55.6066 53.4338 55.5776 53.4657 55.5477 53.4993C53.9084 55.1091 51.8694 56.7016 49.6471 58.2863C49.1808 58.5993 49.092 58.6049 48.8219 58.3609L47.5857 57.0733Z" fill="#514D49"/>
<path d="M52.5358 54.9509L49.1601 57.582C49.021 57.6904 48.9961 57.8911 49.1045 58.0302L49.2339 58.1962C49.3423 58.3353 49.543 58.3602 49.6821 58.2517L53.0578 55.6206C53.1969 55.5122 53.2218 55.3115 53.1134 55.1724L52.984 55.0064C52.8756 54.8673 52.6749 54.8424 52.5358 54.9509Z" fill="#43403D"/>
<path d="M53.1825 54.4921C53.3254 54.4096 53.3744 54.2269 53.2919 54.084C53.2094 53.9411 53.0266 53.8921 52.8837 53.9746C52.7408 54.0571 52.6919 54.2399 52.7744 54.3828C52.8569 54.5257 53.0396 54.5746 53.1825 54.4921Z" fill="#3B3835"/>
<path d="M38.1545 59.7961L41.5674 62.3539L44.5503 60.3102C45.1454 59.9014 45.4952 59.2726 45.6179 58.9716C45.8383 58.4781 46.1604 57.9711 47.036 57.4219L57.5899 50.7506L54.5148 45.4244L39.8774 53.9707C38.684 54.6998 38.6207 55.806 38.8606 56.9885C39.1147 58.1627 38.6776 59.0618 38.1545 59.7961Z" fill="#B6B2AE"/>
<path d="M47.5857 57.0733L55.6458 51.9783L55.926 52.6393C56.0544 52.9394 55.9008 53.109 55.6343 53.4032C55.6066 53.4338 55.5776 53.4657 55.5477 53.4993C53.9084 55.1091 51.8694 56.7016 49.6471 58.2863C49.1808 58.5993 49.092 58.6049 48.8219 58.3609L47.5857 57.0733Z" stroke="#363330" stroke-width="1.01592" stroke-miterlimit="3.99393"/>
<path d="M38.1537 59.7964L30.8488 67.9473C29.9209 69.0245 28.7215 69.5739 27.3577 69.3612L24.8111 68.7582C23.772 68.5339 23.6016 68.6017 22.7632 69.1839L2.08241 83.1019C1.32063 83.6378 1.58843 83.9242 1.87878 84.3693L9.706 95.8111C9.75201 95.8927 9.91677 95.8591 10.1183 95.6427C20.8524 84.7875 31.4248 73.4255 41.5665 62.3542" fill="#6B6661"/>
<path d="M11.7196 94.02L11.8358 93.877C8.57462 90.6096 5.62 86.5774 3.16668 82.3736L2.08281 83.103C1.37047 83.6041 1.55841 83.887 1.82322 84.2857C1.8416 84.3133 1.86034 84.3416 1.87918 84.3704L9.7064 95.8122C9.75241 95.8938 9.91717 95.8602 10.1187 95.6438C10.6528 95.1038 11.1864 94.5624 11.7196 94.02Z" fill="#43403D"/>
<path d="M10.8386 94.436C7.8285 91.4868 5.36785 88.2145 2.50251 83.2583L2.32029 82.9426L3.16819 82.372C5.62151 86.5758 8.57613 90.608 11.8373 93.8754L11.7212 94.0184C11.5076 94.2356 11.294 94.4527 11.0803 94.6696L10.8386 94.436Z" fill="#3B3835"/>
<path d="M42.381 58.6131C42.5883 58.4934 42.6593 58.2283 42.5396 58.021C42.42 57.8137 42.1549 57.7427 41.9476 57.8624C41.7403 57.9821 41.6693 58.2471 41.789 58.4544C41.9086 58.6617 42.1737 58.7328 42.381 58.6131Z" fill="#6B6661"/>
<path d="M41.2326 61.3758C41.4399 61.2561 41.5109 60.991 41.3912 60.7837C41.2715 60.5764 41.0065 60.5054 40.7992 60.6251C40.5919 60.7448 40.5208 61.0098 40.6405 61.2171C40.7602 61.4244 41.0253 61.4954 41.2326 61.3758Z" fill="#6B6661"/>
<path d="M45.0451 59.6014C45.2524 59.4817 45.3234 59.2166 45.2037 59.0093C45.084 58.802 44.819 58.731 44.6117 58.8507C44.4044 58.9704 44.3333 59.2354 44.453 59.4427C44.5727 59.65 44.8378 59.721 45.0451 59.6014Z" fill="#6B6661"/>
<path d="M55.6259 51.1728C55.7688 51.0903 55.8177 50.9076 55.7352 50.7647C55.6527 50.6218 55.47 50.5728 55.3271 50.6553C55.1842 50.7378 55.1352 50.9205 55.2177 51.0634C55.3002 51.2063 55.483 51.2553 55.6259 51.1728Z" fill="#6B6661"/>
<path d="M57.5912 50.7508L79.3481 37.1812L79.688 36.5914L81.719 35.2441C82.0482 35.0213 81.9911 34.8556 81.6078 34.1771L80.6189 32.4729L55.4336 47.0138" stroke="#363330" stroke-width="1.01592" stroke-miterlimit="3.99393"/>
<path d="M106.836 14.8813L104.893 16.0034L104.35 16.8585L104.458 17.0455L107.574 15.2463L107.466 15.0593L106.836 14.8813Z" fill="#43403D"/>
<path d="M105.06 15.7357L104.348 16.8581L104.456 17.045L107.572 15.2458L107.464 15.0588L106.618 14.8199C106.116 14.7689 105.813 14.6605 105.566 14.5265L104.973 14.8688L105.08 15.054C104.962 15.305 104.811 15.2921 105.06 15.7357Z" stroke="#363330" stroke-width="0.507958" stroke-miterlimit="3.99393"/>
<path d="M67.8849 38.1786L77.0815 32.8645L108.047 14.9719L108.769 16.2124L80.4987 32.5405L55.4309 47.0134L54.5137 45.4248L54.9503 45.1727C59.538 42.8503 62.3947 41.4401 67.8849 38.1786Z" fill="#9E9994" stroke="#363330" stroke-width="1.01592" stroke-miterlimit="3.99393"/>
<path d="M76.8994 32.5601L79.6546 37.3322C79.9811 37.2309 80.4789 37.0214 80.3812 36.3262L77.88 31.994C77.3903 32.0383 77.1072 32.2658 76.8994 32.5601Z" fill="#43403D" stroke="#363330" stroke-width="0.507958" stroke-miterlimit="3.99393"/>
<path d="M11.7196 94.02L11.8358 93.877C8.57462 90.6096 5.62 86.5774 3.16668 82.3736L2.08281 83.103C1.37047 83.6041 1.55841 83.887 1.82322 84.2857C1.8416 84.3133 1.86034 84.3416 1.87918 84.3704L9.7064 95.8122C9.75241 95.8938 9.91717 95.8602 10.1187 95.6438C10.6528 95.1038 11.1864 94.5624 11.7196 94.02Z" stroke="#363330" stroke-width="0.507959" stroke-miterlimit="3.99393"/>
<path d="M41.5634 62.3597L37.1807 64.8155L38.5411 61.7721L35.7485 63.5023L36.8444 61.2594L30.8504 67.9477C30.3933 68.4783 29.8704 68.8808 29.2944 69.1273C27.9732 69.6578 26.4632 73.6145 24.9778 77.3034C24.2352 79.1478 23.4925 80.9923 22.8145 82.4285L22.748 82.5911C29.1376 75.8587 35.4293 69.056 41.5634 62.3597Z" fill="#504D49"/>
<path d="M38.1537 59.7964L30.8488 67.9473C29.9209 69.0245 28.7215 69.5739 27.3577 69.3612L24.8111 68.7582C23.772 68.5339 23.6016 68.6017 22.7632 69.1839L2.08241 83.1019C1.32063 83.6378 1.58843 83.9242 1.87878 84.3693L9.706 95.8111C9.75201 95.8927 9.91677 95.8591 10.1183 95.6427C20.8524 84.7875 31.4248 73.4255 41.5665 62.3542" stroke="#363330" stroke-width="1.01592" stroke-miterlimit="3.99393"/>
<path d="M54.5115 45.4263L39.8774 53.9707C38.684 54.6998 38.6207 55.806 38.8606 56.9885C39.1147 58.1627 38.6776 59.0618 38.1545 59.7961L38.9007 60.3553C39.9411 59.1364 39.9127 57.8055 39.7487 56.7447C39.7419 56.7051 39.734 56.6632 39.7257 56.6194C39.6292 56.1075 39.4829 55.3317 40.4526 54.7312L55.0259 46.3173L54.5115 45.4263Z" fill="#928C86"/>
<path d="M38.1545 59.7961L41.5674 62.3539L44.5503 60.3102C45.1454 59.9014 45.4952 59.2726 45.6179 58.9716C45.8383 58.4781 46.1604 57.9711 47.036 57.4219L57.5899 50.7506L54.5148 45.4244L39.8774 53.9707C38.684 54.6998 38.6207 55.806 38.8606 56.9885C39.1147 58.1627 38.6776 59.0618 38.1545 59.7961Z" stroke="#363330" stroke-width="1.01592" stroke-miterlimit="3.99393" stroke-linecap="round"/>
<path d="M45.3496 50.7742C43.6116 51.7953 44.959 54.0402 46.5513 53.1587L50.8489 50.6774C51.1658 50.4844 51.4779 50.0719 51.8499 49.8222L52.323 49.549C53.3256 48.9957 52.2619 47.0765 51.3295 47.6222C50.9468 47.8246 51.1475 47.7191 50.8657 47.8647C50.2111 48.2273 49.8577 48.1304 49.4775 48.3667" fill="#6B6661"/>
<path d="M52.1728 47.9301L44.9788 52.0836C44.7888 52.1933 44.7237 52.4363 44.8334 52.6263C44.9431 52.8163 45.1861 52.8814 45.3761 52.7717L52.5701 48.6183C52.7601 48.5086 52.8252 48.2656 52.7155 48.0756C52.6058 47.8855 52.3628 47.8204 52.1728 47.9301Z" fill="#514D49"/>
<path d="M45.3496 50.7742C43.6116 51.7953 44.959 54.0402 46.5513 53.1587L50.8489 50.6774C51.1658 50.4844 51.4779 50.0719 51.8499 49.8222L52.323 49.549C53.3256 48.9957 52.2619 47.0765 51.3295 47.6222C50.9468 47.8246 51.1475 47.7191 50.8657 47.8647C50.2111 48.2273 49.8577 48.1304 49.4775 48.3667" stroke="#363330" stroke-width="1.01592" stroke-miterlimit="3.99393"/>
</g>
<defs>
<clipPath id="clip0_2940_3886">
<rect width="110" height="110" fill="white"/>
</clipPath>
</defs>
</svg>
